!!!COM:	Martini, Johannes
!!!CDT:	~1440///-~1497//
!!!OPR:	Missa Coda di pavon
!!!ONM:	3
!!!OTL:	Credo
!!!AGN:	Mass; Credo
!!!SCT:	Mar1002c
!!!SCA:	Mar1002c
!!!voices:	4
!!!voices-OPR:	4
**kern	**kern	**kern	**kern
*staff4	*staff3	*staff2	*staff1
*Ivox	*Ivox	*Ivox	*Ivox
*I"Bassus	*I"Tenor	*I"Contra	*I"Superius
*I'B	*I'T	*I'C	*I'S
*>[A,B]	*>[A,B]	*>[A,B]	*>[A,B]
*>A	*>A	*>A	*>A
*clefF4	*clefGv2	*clefGv2	*clefG2
*k[]	*k[]	*k[]	*k[]
*M2/1	*M2/1	*M2/1	*M2/1
*met(C)	*met(C)	*met(C)	*met(C)
!!section: Patrem omnipotentem
!!!OMD: Patrem omnipotentem
=1-	=1-	=1-	=1-
1G	1g	0d	1g
1G	1g	.	1g
=2	=2	=2	=2
1D	1f	0d	1a
1D	1f	.	1a
=3	=3	=3	=3
0G	0g	0d	1b
.	.	.	[1dd
=4	=4	=4	=4
1B-	1f	1d	2dd\]
.	.	.	2cc\
1c	1e	1g	[1cc
=5	=5	=5	=5
0G	0d	0g	2cc\]
.	.	.	2b\
.	.	.	2.b\
.	.	.	4a/
=6	=6	=6	=6
1A	0c	1e	1cc
2.F\	.	1f	[1cc
4E\	.	.	.
=7	=7	=7	=7
0C	1.e	0g	2cc\]
.	.	.	2cc\
.	.	.	2cc\
.	2e\	.	4b\
.	.	.	4a/
=8	=8	=8	=8
1C	1e	1r	1g
1C	1e	1g	1cc
=9	=9	=9	=9
1G	0d	1g	1b
1D	.	1f	1a
=10	=10	=10	=10
1E	1B	1g	1g
1C	1c	1e	2g/
.	.	.	[2a/
=11	=11	=11	=11
0D	0A	0d	2a/]
.	.	.	1g
.	.	.	2f#i/
=12	=12	=12	=12
2E\	0G	2B\	1g
2.C/	.	1e	.
.	.	.	1r
4D\	.	.	.
4E\	.	4d\	.
4F\	.	4c\	.
=13	=13	=13	=13
1G	1r	2B\	1d
.	.	2G/	.
[1C	1c	[1G	1e
=14	=14	=14	=14
1C]	2c\	1G]	2e/
.	2c\	.	2e/
1G	1B	1r	1d
=15	=15	=15	=15
1E	1c	1G	1e
[1D	1d	1A	[1f
=16	=16	=16	=16
1D]	1d	1B	1f]
[1C	[1e	[1c	[1g
=17	=17	=17	=17
1C]	1e]	1c]	1g]
1F	1f	2.A/	1a
.	.	4G/	.
=18	=18	=18	=18
1C	1e	1G	1cc
[1G	[1d	1r	[1b
=19	=19	=19	=19
2G\]	2d\]	2G/	2b\]
4F\	2e\	1A	2cc\
4E\	.	.	.
1D	1f	.	1dd
.	.	2B\	.
=20	=20	=20	=20
1C	1g	1c	1ee
1r	2f\	2d\	2dd\
.	2e\	[2g\	[2cc\
=21	=21	=21	=21
1G	1d	1g]	2cc\]
.	.	.	2b\
[1C	[1c	[1e	[1cc
=22	=22	=22	=22
1C]	1c]	1e]	1cc]
1E	1r	1e	1g
=23	=23	=23	=23
1D	0r	2f\	2a/
.	.	1d	2.b\
1F	.	.	.
.	.	.	4a/
.	.	2c\	[2a/
=24	=24	=24	=24
1G	1e	1B	2a/]
.	.	.	2g/
2D\	1f	2.A/	1a
2F\	.	.	.
.	.	4B\	.
=25	=25	=25	=25
1C	1e	1c	1g
1D	[1d	1A	[1f
=26	=26	=26	=26
1BB-	1d]	1B-	1f]
[1C	[1c	[1G	[1e
=27	=27	=27	=27
1C]	1c]	1G]	1e]
1r	1r	1r	1d
=28	=28	=28	=28
0r	1c	0r	2e/
.	.	.	2e/
.	2B\	.	1d
.	2B\	.	.
=29	=29	=29	=29
0r	1c	0r	2c/
.	.	.	2e/
.	2A/	.	2f/
.	[2G/	.	[2g/
=30	=30	=30	=30
0r	2G/]	0r	2g/]
.	1c	.	4f/
.	.	.	4e/
.	.	.	1d
.	2B\	.	.
=31	=31	=31	=31
0r	2c\	0r	1c
.	2r	.	.
.	2c\	.	2r
.	[2e\	.	2g/
=32	=32	=32	=32
0r	2e\]	0r	1b
.	2d\	.	.
.	2f\	.	2a/
.	2e\	.	2cc\
=33	=33	=33	=33
0r	1g	0r	2b\
.	.	.	1dd
.	2f\	.	.
.	2e\	.	2cc\
=34	=34	=34	=34
0r	1d	0r	2b\
.	.	.	1a
.	2c\	.	.
.	2B\	.	2g/
=35	=35	=35	=35
0r	1A	0r	2f/
.	.	.	1e
.	2.c\	.	.
.	.	.	[2g/
.	4d\	.	.
=36	=36	=36	=36
0r	2.e\	0r	4g/]
.	.	.	4a/
.	.	.	2.b\
.	4f\	.	.
.	2.g\	.	.
.	.	.	4cc\
.	.	.	[2dd\
.	4f\	.	.
=37	=37	=37	=37
0r	2d\	0r	4dd\]
.	.	.	4cc\
.	1f	.	2a/
.	.	.	1cc
.	2e\	.	.
=38	=38	=38	=38
0r	2.d\	0r	2b\
.	.	.	2.a/
.	4c\	.	.
.	2d\	.	.
.	.	.	4g/
.	2B\	.	[2g/
=39	=39	=39	=39
0r	1A	0r	2g/]
.	.	.	2f#i/
.	1G	.	[1g
=40	=40	=40	=40
1r	1r	1r	1g]
3%2CV	[3%2.c	3%2GV	1r
[3E\Z	.	[3G/Z	.
=41	=41	=41	=41
3E\]V	3c\]V	3G/]V	1r
3%2D	3%2d	3%2A	.
3%2C	[3%2.eZ	3%2c	3%2gV
[3c\Z	.	3rZ	[3g/Z
=42	=42	=42	=42
3c\]V	3e\]V	3rV	3g/]V
3%2A	3%2f	3%2c	3%2a
[3%2.GZ	3%2g	[3%2.dZ	[3%2.bZ
.	3rZ	.	.
=43	=43	=43	=43
3G\]V	3rV	3d\]V	3b\]V
3%2AZ	3%2e	3%2cZ	3%2ccZ
3%2DV	3%2.fZ	3%2AV	3%2ddV
[3BB-i/Z	.	[3B-i\Z	3rZ
=44	=44	=44	=44
3BB-/]V	3e\V	3B-\]V	3rV
3%2CZ	3%2c	3%2G	3%2ee
3%2BB-iV	[3%2.dZ	3%2.B-Z	3%2.ffZ
3rZ	.	.	.
=45	=45	=45	=45
3rV	3d\]V	3c\V	3ee\V
3%2B-Z	3%2fZ	3%2dZ	3%2ddZ
3%2cV	3%2eV	3%2gV	3%2ccV
[3d\Z	[3d\Z	[3f\Z	3rZ
=46	=46	=46	=46
3d\]V	3%2.d]V	3f\]V	3rV
3%2B-iZ	.	3%2b-Z	3%2ffZ
3%2cV	[3%2.gZ	3%2gV	3%2eeV
[3G\Z	.	[3b-i\Z	[3dd\Z
=47	=47	=47	=47
3G\]V	3g\]V	3%2.b-]V	3%2dd]V
3%2B-iZ	3%2fZ	.	.
.	.	.	3cc\
3%2cV	3%2eV	3%2a	3%2.ccZ
[3G\Z	[3d\Z	[3g\Z	.
=48	=48	=48	=48
3%2.G]	1d]	1g]	3b\V
.	.	.	3b\
.	.	.	3a/Z
1C	1c	1e	1ccZ
=49	=49	=49	=49
1C	1r	1r	1cc
1E	1c	1e	1r
=50	=50	=50	=50
1D	1.d	1.f	0r
1F	.	.	.
.	2c\	2e\	.
=51	=51	=51	=51
1G	1B	2.d\	1g
.	.	4e\	.
[1F	2A/	1f	[1a
.	[2d\	.	.
=52	=52	=52	=52
2F\]	2d\]	1r	2a/]
2E\	1c	.	2g/
1D	.	1F	1f
.	2B\	.	.
=53	=53	=53	=53
2C/	1c	2G/	2e/
2F\	.	2A/	2.a/
2G\	2B\	2B\	.
.	.	.	4g/
2E\	2G/	2c\	[2g/
=54	=54	=54	=54
1D	1A	1d	2g/]
.	.	.	2f#i/
2E\	2.G/	1B	1g
[2G\	.	.	.
.	4A/	.	.
=55	=55	=55	=55
2G\]	2B\	0r	0r
4F\	1c	.	.
4E\	.	.	.
1D	.	.	.
.	2B\	.	.
=56	=56	=56	=56
1C	2c\	2.e\	2.g/
.	2e\	.	.
.	.	4f\	4a/
2G\	2d\	2g\	2b\
2A\	2c\	2f\	[2cc\
=57	=57	=57	=57
1G	1d	1g	2cc\]
.	.	.	2b\
[1C	[1c	[1e	1cc
=58	=58	=58	=58
1C]	2c\]	1e]	2g/
.	2.A/	.	2.cc\
1F	.	1c	.
.	4G/	.	4b\
.	2c\	.	[2a/
=59	=59	=59	=59
1D	2d\	1f	2a/]
.	2c\	.	4g/
.	.	.	4f/
1Cl	1cl	1gl	1el
!!LO:LB:i:g=z
=60||	=60||	=60||	=60||
*>B	*>B	*>B	*>B
*clefF4	*clefGv2	*clefGv2	*clefG2
*k[]	*k[]	*k[]	*k[]
*M2/1	*M2/1	*M2/1	*M2/1
*met(C)	*met(C)	*met(C)	*met(C)
!!section: Et resurrexit
!!!OMD: Et resurrexit
1.G	0r	0r	0g
2A\	.	.	.
=61	=61	=61	=61
1B	0r	0r	1g
1c	.	.	1a
=62	=62	=62	=62
1d	0r	0r	1a
1G	.	.	1b
=63	=63	=63	=63
1.c	0r	1.g	0r
2d\	.	2f\	.
=64	=64	=64	=64
1e	0r	1g	0r
1c	.	1e	.
=65	=65	=65	=65
1d	0r	1d	1dd
[1G	.	1r	2dd\
.	.	.	[2dd\
=66	=66	=66	=66
2G\]	0r	0r	2dd\]
2G\	.	.	2cc\
1G	.	.	2.b\
.	.	.	4a/
=67	=67	=67	=67
1F	0r	1f	1a
1E	.	2g\	1r
.	.	2g\	.
=68	=68	=68	=68
0D	0r	2f\	0r
.	.	1a	.
.	.	4g\	.
.	.	4f\	.
=69	=69	=69	=69
1A	0r	1e	1cc
2B\	.	1d	1dd
2B\	.	.	.
=70	=70	=70	=70
1c	0r	2e\	2cc\
.	.	1g	1ee
1A	.	.	.
.	.	2f\	4dd\
.	.	.	4cc\
=71	=71	=71	=71
1G	0r	2g\	1b
.	.	2g\	.
1d	.	1f	1a
=72	=72	=72	=72
2G\	0r	2g\	2b\
2B\	.	2d\	1dd
1A	.	1e	.
.	.	.	2cc#i\
=73	=73	=73	=73
0D	0r	1d	0dd
.	.	1r	.
=74	=74	=74	=74
1.d	0r	1f	0r
.	.	1f	.
2d\	.	.	.
=75	=75	=75	=75
1d	0r	1f	0r
1c	.	1e	.
=76	=76	=76	=76
1.A	0r	0r	1cc
.	.	.	1cc
2A\	.	.	.
=77	=77	=77	=77
1A	0r	1c	1cc
1G	.	2d\	1b
.	.	[2e\	.
=78	=78	=78	=78
2C/	0r	4e\]	0r
.	.	4d\	.
2E\	.	1c	.
1D	.	.	.
.	.	2B\	.
=79	=79	=79	=79
2C/	0r	1c	1g
2E\	.	.	.
2F\	.	1r	2a/
[2G\	.	.	[2b\
=80	=80	=80	=80
2G\]	0r	1G	4b\]
.	.	.	4a/
4F\	.	.	1g
4E\	.	.	.
1D	.	1A	.
.	.	.	2f#i/
=81	=81	=81	=81
2E\	0r	1G	1g
1C	.	.	.
.	.	1c	1r
2C/	.	.	.
=82	=82	=82	=82
2G\	0r	1B	1d
2G\	.	.	.
1C	.	1c	1e
=83	=83	=83	=83
2r	0r	1r	1d
1G	.	.	.
.	.	1e	1g
2G\	.	.	.
=84	=84	=84	=84
1A	0r	1f	1r
1G	.	1g	1b
=85	=85	=85	=85
1A	0r	1e	1cc
1B	.	2d\	1dd
.	.	[2g\	.
=86	=86	=86	=86
2.G\	0r	2g\]	1b
.	.	4f\	.
4F\	.	4e\	.
1D	.	4f\	1a
.	.	4e\	.
.	.	4d\	.
.	.	4c\	.
=87	=87	=87	=87
2E\	0r	2B\	2g/
2F\	.	2A/	2cc\
2G\	.	1d	2b\
2D\	.	.	[2a/
=88	=88	=88	=88
2F\	0r	2c\	4a/]
.	.	.	4g/
2G\	.	2B\	1g
1D	.	1A	.
.	.	.	2f#i/
=89	=89	=89	=89
1r	[0G	1G	[0g
1d	.	1r	.
=90	=90	=90	=90
1B	0G]	1d	0g]
1G	.	1B	.
=91	=91	=91	=91
1F	0c	1A	1r
1A	.	1c	1a
=92	=92	=92	=92
0G	1r	1B	1b
.	1d	1G	2b\
.	.	.	2b\
=93	=93	=93	=93
1C	0e	1r	0cc
1E	.	1g	.
=94	=94	=94	=94
0D	1.f	1a	1r
.	.	2f\	1dd
.	2e\	[2a\	.
=95	=95	=95	=95
0A	1c	2a\]	1ee
.	.	4g\	.
.	.	4f\	.
.	1r	1e	1ee
=96	=96	=96	=96
1D	1d	2d\	1ff
.	.	2f\	.
2C/	2e\	2g\	2ee\
2D\	[2f\	2f\	[2dd\
=97	=97	=97	=97
2F\	4f\]	2a\	4dd\]
.	4g\	.	4cc\
2C/	2e\	2.g\	1cc
1G	1d	.	.
.	.	4f\	.
.	.	2g\	2b\
=98	=98	=98	=98
0C	1c	1.e	2.cc\
.	.	.	4b\
.	1r	.	1g
.	.	2c\	.
=99	=99	=99	=99
1C	1e	1c	1cc
1G	2.d\	1r	2b\
.	.	.	[2dd\
.	4c\	.	.
=100	=100	=100	=100
1F	1A	1f	4dd\]
.	.	.	4b\
.	.	.	4cc\
.	.	.	4dd\
2G\	2G/	2d\	2b\
[2F\	[2c\	[2f\	[2a/
=101	=101	=101	=101
2F\]	2c\]	2f\]	4a/]
.	.	.	4g/
2G\	2B\	2e\	1g
1D	1A	2.d\	.
.	.	.	2f#i/
.	.	4c\	.
=102	=102	=102	=102
2r	1G	2.B\	1g
1d	.	.	.
.	.	4A/	.
.	2r	2G/	1r
2B\	2d\	2B\	.
=103	=103	=103	=103
2c\	2e\	2A/	1r
2B\	1g	1d	.
1A	.	.	2r
.	2f\	2c\	2a/
=104	=104	=104	=104
2G\	2g\	1d	2b\
2B\	2d\	.	1dd
1A	1e	2r	.
.	.	[2a\	2cc\
=105	=105	=105	=105
1D	2f\	2a\]	1dd
.	2e\	4g\	.
.	.	4f\	.
1A	1c	1e	2r
.	.	.	2ee\
=106	=106	=106	=106
0D	2r	2.d\	2.ff\
.	2d\	.	.
.	.	4c\	4ee\
.	1f	1A	1dd
=107	=107	=107	=107
1A	1e	2r	1cc
.	.	2a\	.
2B-\	1d	2.f\	2r
2d\	.	.	2ff\
.	.	4e\	.
=108	=108	=108	=108
1A	2r	1c	2ee\
.	2e\	.	2cc\
2D\	1f	2.A/	1dd
2F\	.	.	.
.	.	4B\	.
=109	=109	=109	=109
1C	1g	1c	1ee
2D\	2d\	2A/	2.ff\
[2BB-/	[2f\	[2B-\	.
.	.	.	4ee\
=110	=110	=110	=110
2BB-/]	2f\]	4B-\]	4dd\
.	.	4A/	4cc\
2C/	2e\	2G/	1cc
1G	1d	2r	.
.	.	[2g\	2b\
=111	=111	=111	=111
0C	0c	2g\]	0cc
.	.	2g\	.
.	.	2.e\	.
.	.	4f\	.
=112	=112	=112	=112
*M3/1	*M3/1	*M3/1	*M3/1
*met(3)	*met(3)	*met(3)	*met(3)
1.G	0.r	0d	0.dd
2A\	.	.	.
1B	.	1d	.
=113	=113	=113	=113
1.A	0.r	1.e	0cc
2B\	.	2d\	.
1c	.	1c	1cc
=114	=114	=114	=114
0G	0.g	1B	0dd
.	.	1d	.
1C	.	1e	1cc
=115	=115	=115	=115
0.D	0f	1.d	1b
.	.	.	0a
.	.	2A/	.
.	1f	1d	.
=116	=116	=116	=116
0G	0g	1.B	1g
.	.	.	1e
.	.	2c\	.
1r	1f	1d	1f
=117	=117	=117	=117
0G	1e	0B	0g
.	0d	.	.
1G	.	[1G	1d
=118	=118	=118	=118
1C	1c	1G]	1e
0D	1A	0F	1.f
.	1B	.	.
.	.	.	2g/
=119	=119	=119	=119
1C	0c	1G	1e
0F	.	1F	0a
.	1c	1A	.
=120	=120	=120	=120
1D	1d	1B	1f
0C	0e	0c	1g
.	.	.	1cc
=121	=121	=121	=121
1G	0d	1d	1b
1D	.	1f	1.a
1G	1B	1d	.
.	.	.	2g/
=122	=122	=122	=122
1C	1c	1e	0g
0D	0A	0d	.
.	.	.	1f#i
=123	=123	=123	=123
1.E	0.G	0.B	0g
2F\	.	.	.
1G	.	.	1d
=124	=124	=124	=124
0.C	0.c	0G	0e
.	.	1g	1e
=125	=125	=125	=125
0.G	0B	0g	0d
.	1B	1d	[1g
=126	=126	=126	=126
0C	0c	0e	1g]
.	.	.	1a
1r	1d	1d	1b
=127	=127	=127	=127
1c	1e	0c	0cc
1A	0f	.	.
[1B	.	1r	1dd
=128	=128	=128	=128
1B]	0g	1d	1dd
0c	.	1c	1.ee
.	[1c	1e	.
.	.	.	2dd\
=129	=129	=129	=129
1A	1c]	1f	0cc
0G	0d	0g	.
.	.	.	1b
=130	=130	=130	=130
0C	0.c	0e	0cc
1C	.	1c	1r
=131	=131	=131	=131
1.G	0.r	0d	0b
2F\	.	.	.
1D	.	1f	1a
=132	=132	=132	=132
1C	0.r	1e	1.cc
1.F	.	1c	.
.	.	.	2b\
.	.	1A	1a
2E\	.	.	.
=133	=133	=133	=133
0C	0e	0c	1g
.	.	.	1e
[1D	1d	[1A	1f
=134	=134	=134	=134
1D]	1.f	1A]	1.d
0BB-	.	0B-	.
.	2e\	.	2c/
.	1d	.	1d
=135	=135	=135	=135
0.C	0.c	0G	0e
.	.	1g	1r
=136	=136	=136	=136
0c	0.r	1.g	0.r
.	.	2f\	.
1c	.	1e	.
=137	=137	=137	=137
1.B	0.r	1.d	0.r
2c\	.	2e\	.
1d	.	1f	.
=138	=138	=138	=138
1.c	0.r	0e	0cc
2B\	.	.	.
1A	.	1f	1cc
=139	=139	=139	=139
0G	0.r	0g	1.b
.	.	.	2cc\
1B	.	1d	1dd
=140	=140	=140	=140
1.A	0c	1e	1.cc
.	.	0f	.
2G\	.	.	2b\
2F\	1c	.	1a
2E\	.	.	.
=141	=141	=141	=141
1G	1.B	1d	0g
1E	.	1e	.
.	2c\	.	.
1D	1d	[1A	1f
=142	=142	=142	=142
0.F	1.c	1A]	1.a
.	.	1F	.
.	2B\	.	2g/
.	1A	1A	2f/
.	.	.	2e/
=143	=143	=143	=143
0E	1G	1B	1.g
.	1c	1G	.
.	.	.	2e/
1D	1d	1A	2f/
.	.	.	2g/
=144	=144	=144	=144
1E	0c	1G	1e
1F	.	1r	0d
1G	1B	1G	.
=145	=145	=145	=145
1C	0c	0G	1c
1E	.	.	1e
1D	1d	1A	1f
=146	=146	=146	=146
0.C	0e	1.c	1.g
.	.	2d\	2f/
.	1c	1e	1g
=147	=147	=147	=147
0.r	1f	1d	1a
.	1e	1c	1cc
.	[1g	[1G	1b
=148	=148	=148	=148
0.r	1g]	1G]	0dd
.	1f	0A	.
.	1e	.	1cc
=149	=149	=149	=149
0.r	0d	1B	1dd
.	.	1G	1.b
.	1G	1d	.
.	.	.	2a/
=150	=150	=150	=150
0.r	1B	1.d	0g
.	0A	.	.
.	.	2c\	.
.	.	2.c\	1f#i
.	.	4B\	.
=151	=151	=151	=151
0E	0G	1.e	0g
.	.	2d\	.
1F	1A	1c	1f
=152	=152	=152	=152
0G	1B	0B	1d
.	1G	.	0g
1E	[1c	1e	.
=153	=153	=153	=153
1A	1c]	1f	1a
0G	1d	0g	1b
.	1e	.	1g
=154	=154	=154	=154
1A	1c	1r	0cc
0F	0f	1r	.
.	.	[1c	1dd
=155	=155	=155	=155
1C	1e	1c]	1cc
1D	0d	1A	0ff
1BB-	.	1B-i	.
=156	=156	=156	=156
1C	1c	0G	1ee
1G	1B	.	1.dd
1E	1c	[1g	.
.	.	.	2cc\
=157	=157	=157	=157
1C	1e	0.g]	0cc
0G	0d	.	.
.	.	.	1b
=158	=158	=158	=158
0.Cl	0.cl	0.gl	0.ccl
==	==	==	==
*-	*-	*-	*-
!!!RDF**kern: l=long note in original notation
!!!RDF**kern: i=editorial accidental
!!!RDF**kern: V=start of tuplet marker
!!!RDF**kern: Z=end of tuplet marker
!!!ENC:	Chris Gage 11-13-2013
!!!END:	2014/06/21/
!!!EED:	Jesse Rodin
!!!EEV:	2015/03/09/
!!!ONB:	Translated from MusicXML and edited on 2015/03/09/ by Craig Sapp
!!muse2ps: T^@{OPR}^u^@{ONM}{. }@{OTL}^C^@{COM}^i2I150v85,85,85,150Q16
